X:1
T:The Contented
M:4/4
L:1/8
K:F
 D|D/2-E/2F/2-D/2 GG FE DD|D/2-E/2F/2-D/2 GG FED-D| C3/2 E/2 F3/2 E/2 ED-D D|\
D/2-E/2F/2-D/2 GG FE| DD|D/2-E/2F/2-D/2 GG FE DD| C3/2 D/2 E D/2C/2 DD G2|\
 C3/2 D/2 ED/2-C/2 DD G, G,| C3 E F2| E2| ED D4 D||
